polaris-icons/icons/newicons/ImageWithTextOverlayMajor.svg

<svg width="20" height="20" viewBox="0 0 20 20" fill="none" xmlns="http://www.w3.org/2000/svg">
<path d="M11.4821 3H8.5179C7.70506 2.99999 7.04944 2.99999 6.51853 3.04336C5.9719 3.08803 5.49175 3.18239 5.04754 3.40873C4.34193 3.76825 3.76825 4.34193 3.40873 5.04754C3.18239 5.49175 3.08803 5.9719 3.04336 6.51853C2.99999 7.04944 2.99999 7.70505 3 8.51789V11.4821C2.99999 12.2949 2.99999 12.9506 3.04336 13.4815C3.08803 14.0281 3.18239 14.5082 3.40873 14.9525C3.76825 15.6581 4.34193 16.2317 5.04754 16.5913C5.49175 16.8176 5.9719 16.912 6.51853 16.9566C7.04944 17 7.70505 17 8.51788 17H10.25C10.6642 17 11 16.6642 11 16.25C11 15.8358 10.6642 15.5 10.25 15.5H8.55C7.69755 15.5 7.10331 15.4994 6.64068 15.4616C6.18681 15.4245 5.92604 15.3554 5.72852 15.2548C5.30516 15.039 4.96095 14.6948 4.74524 14.2715C4.6446 14.074 4.57547 13.8132 4.53838 13.3593C4.52471 13.192 4.5159 13.0074 4.51024 12.7995C4.51702 12.7932 4.52372 12.7868 4.53033 12.7802L6.82322 10.4873C6.92085 10.3897 7.07915 10.3897 7.17678 10.4873L10.4697 13.7802C10.7626 14.0731 11.2374 14.0731 11.5303 13.7802C11.8232 13.4873 11.8232 13.0124 11.5303 12.7195L8.23744 9.42663C7.55402 8.74321 6.44598 8.74321 5.76256 9.42663L4.5 10.6892V8.55C4.5 7.69755 4.50058 7.10331 4.53838 6.64068C4.57547 6.18681 4.6446 5.92604 4.74524 5.72852C4.96095 5.30516 5.30516 4.96095 5.72852 4.74524C5.92604 4.6446 6.18681 4.57547 6.64068 4.53838C7.10331 4.50058 7.69755 4.5 8.55 4.5H11.45C12.3025 4.5 12.8967 4.50058 13.3593 4.53838C13.8132 4.57547 14.074 4.6446 14.2715 4.74524C14.6948 4.96095 15.039 5.30516 15.2548 5.72852C15.3554 5.92604 15.4245 6.18681 15.4616 6.64068C15.4994 7.10331 15.5 7.69755 15.5 8.55V9.25C15.5 9.66421 15.8358 10 16.25 10C16.6642 10 17 9.66421 17 9.25V8.51788C17 7.70505 17 7.04944 16.9566 6.51853C16.912 5.9719 16.8176 5.49175 16.5913 5.04754C16.2317 4.34193 15.6581 3.76825 14.9525 3.40873C14.5082 3.18239 14.0281 3.08803 13.4815 3.04336C12.9506 2.99999 12.2949 2.99999 11.4821 3Z" fill="black"/>
<path d="M14 7.5C14 8.32843 13.3284 9 12.5 9C11.6716 9 11 8.32843 11 7.5C11 6.67157 11.6716 6 12.5 6C13.3284 6 14 6.67157 14 7.5Z" fill="black"/>
<path d="M13.25 11.5C12.8358 11.5 12.5 11.8358 12.5 12.25C12.5 12.6642 12.8358 13 13.25 13H17.25C17.6642 13 18 12.6642 18 12.25C18 11.8358 17.6642 11.5 17.25 11.5H13.25Z" fill="black"/>
<path d="M12.5 14.75C12.5 14.3358 12.8358 14 13.25 14H17.25C17.6642 14 18 14.3358 18 14.75C18 15.1642 17.6642 15.5 17.25 15.5H13.25C12.8358 15.5 12.5 15.1642 12.5 14.75Z" fill="black"/>
<path d="M13.25 16.5C12.8358 16.5 12.5 16.8358 12.5 17.25C12.5 17.6642 12.8358 18 13.25 18H15.5C15.9142 18 16.25 17.6642 16.25 17.25C16.25 16.8358 15.9142 16.5 15.5 16.5H13.25Z" fill="black"/>
</svg>

<svg viewBox="0 0 20 20" fill="none" xmlns="http://www.w3.org/2000/svg"><path d="M11.482 3h-2.964c-.813 0-1.469 0-2 .043-.546.045-1.026.14-1.47.366a3.75 3.75 0 0 0-1.64 1.639c-.226.444-.32.924-.365 1.47-.043.531-.043 1.187-.043 2v2.964c0 .813 0 1.469.043 2 .045.546.14 1.026.366 1.47a3.75 3.75 0 0 0 1.639 1.64c.444.226.924.32 1.47.365.531.043 1.187.043 2 .043h1.732a.75.75 0 0 0 0-1.5h-1.7c-.852 0-1.447 0-1.91-.038-.453-.037-.714-.107-.911-.207a2.25 2.25 0 0 1-.984-.984c-.1-.197-.17-.458-.207-.912a10.404 10.404 0 0 1-.028-.56.774.774 0 0 0 .02-.019l2.293-2.293a.25.25 0 0 1 .354 0l3.293 3.293a.75.75 0 1 0 1.06-1.06l-3.293-3.293a1.75 1.75 0 0 0-2.474 0l-1.263 1.262v-2.139c0-.852 0-1.447.038-1.91.037-.453.107-.714.207-.911a2.25 2.25 0 0 1 .984-.984c.197-.1.458-.17.912-.207.462-.037 1.057-.038 1.909-.038h2.9c.853 0 1.447 0 1.91.038.453.037.714.107.912.207.423.216.767.56.983.984.1.197.17.458.207.912.037.462.038 1.057.038 1.909v.7a.75.75 0 0 0 1.5 0v-.732c0-.813 0-1.469-.043-2-.045-.546-.14-1.026-.366-1.47a3.75 3.75 0 0 0-1.639-1.64c-.444-.226-.924-.32-1.47-.365-.531-.043-1.187-.043-2-.043Z" fill="#000"/><path d="M14 7.5a1.5 1.5 0 1 1-3 0 1.5 1.5 0 0 1 3 0Z" fill="#000"/><path d="M13.25 11.5a.75.75 0 0 0 0 1.5h4a.75.75 0 0 0 0-1.5h-4Z" fill="#000"/><path d="M12.5 14.75a.75.75 0 0 1 .75-.75h4a.75.75 0 0 1 0 1.5h-4a.75.75 0 0 1-.75-.75Z" fill="#000"/><path d="M13.25 16.5a.75.75 0 0 0 0 1.5h2.25a.75.75 0 0 0 0-1.5h-2.25Z" fill="#000"/></svg>
